X: 312
T: Little Judique Reel
M:4/4
R:reel
L:1/8
Z:Alf Warnock - alf0@rogers.com
K:D
f>g|"D"a^gab a2f2|d2A2 d2f2|a^gab a2f2|d4 d2e>f|
"A7"gfga g2e2|c2A2 c2e2|gfga g2e2|c4 c2f>g|
"D"a^gab a2f2|d2A2 d2f2|a^gab a2f2|d4 d2g>a|
"G"b2gb "D"a2fa|"G"g2eg "D"f2df|"A"cAce a2c2O|"D"d4 d2c>d||
K:A
"A"e4 e3f|e2c2 B2A2|"D"a^gab a2f2|"A"e4 e2 f>g|"D"a^gab a2f2|
"A"e2c2 a3f|[1 e2c2 (3BcB A2|"E7"B4 B2c>d:|[2 e2c2 "E7"(3BcBc2|"A"A4 A2|]
OdBAF HD2|]
